X: 13
T: WILLAFJORD
R: reel
B: Haand me doon da fiddle, 1979
Z: 2012 John Chambers <jc:trillian.mit.edu>
M: C
L: 1/8
K: D
uB2 |\
vA2uFvA- AuDFA | vB2uGvB- BuDGB | A2FA- ADFA | (vEF)uGA (uGF)vED |
A2FA- ADFA | B2GB- BDG(uB | AB)c(ud ef)gue | vf2[d2D2] [d2D2]e2 |
vf2udvf- fufd(uf | ge)af gfeg | f2df- fAdf | e2ce- eAce |
f2df- ffd(uf | ge)af gfe(uc | AB)c(ud ef)gue | vf2[d2D2] [d2D2] :|
%%begintext align
If du imagines some een gaen wi wan fit ida stank an de idder
eed on a broo an gaein a lunk as dey go alang, dat's da kind
o' syncopated rhythm du haes to get whin du plays dis een.
%%endtext

%%sep 2 1 500
%%sep 1 1 500

